app/dist/common/images/yowie-ltd.svg

<svg height="18" viewBox="0 0 18 18" width="18" xmlns="http://www.w3.org/2000/svg"><path d="m0 0h18v18h-18z" fill="#f0f3fa"/><path d="m7.5 5-1.5 1 2.03 3.02-.42 3.67 2.39.31-.37-3.98 2.37-3.52-1.5-.5-1.67 2.55z" fill="#ed1a3b"/><path d="m5 5.57 2.52-1.57 1.27 2.3 1.21-2.22 3 1.02-2.72 4.03.4 4.86-3.77-.68.38-4.19zm2.72 3.45-.35 3.97 2.83.43-.35-4.4 2.48-3.68-2.13-.73-1.4 2.57-1.43-2.58-1.77 1.1 2.12 3.3z" fill="#5a2e79"/></svg>

<!-- by TradingView --><svg width="18" height="18" viewBox="0 0 18 18" xmlns="http://www.w3.org/2000/svg"><path fill="#F0F3FA" d="M0 0h18v18H0z"/><path d="M7.5 5 6 6l2.03 3.02-.42 3.67L10 13l-.37-3.98L12 5.5 10.5 5 8.83 7.55 7.5 5Z" fill="#ED1A3B"/><path d="M5 5.57 7.52 4l1.27 2.3L10 4.08 13 5.1l-2.72 4.03.4 4.86-3.77-.68.38-4.19L5 5.57Zm2.72 3.45-.35 3.97 2.83.43-.35-4.4 2.48-3.68-2.13-.73L8.8 7.18 7.37 4.6 5.6 5.7 7.72 9Z" fill="#5A2E79"/></svg>
